public/images/logos/weibo.svg

<?xml version="1.0" encoding="UTF-8" standalone="no"?>
<svg viewBox="0 0 32 32" version="1.1" id="svg1" width="32" height="32" xmlns="http://www.w3.org/2000/svg" xmlns:svg="http://www.w3.org/2000/svg">
  <defs id="defs1" />
  <path id="weibo" d="m 18.781559,8.6930771 c 3.73306,-1.5686609 6.992647,-1.6615891 8.183624,0.045904 0.633601,0.909159 0.573121,2.1844619 -0.01114,3.6624229 -0.270912,0.680756 0.08275,0.787124 0.600001,0.942759 C 29.656062,13.998058 32,15.581234 32,18.369192 32,22.986797 25.362169,28.799987 15.387721,28.799987 7.7783888,28.799987 0,25.100718 0,19.016425 0,15.834329 2.0092436,12.156201 5.4691639,8.6841459 10.088731,4.0509507 15.476199,1.9403693 17.502261,3.9748034 c 0.894338,0.8946249 0.980546,2.44758 0.406273,4.2995179 -0.300096,0.9326793 0.873025,0.416487 0.873025,0.4187526 z M 13.981842,12.137157 C 7.9104311,12.739558 3.3054217,16.470313 3.7005581,20.467374 4.0945617,24.46693 9.336513,27.221172 15.407866,26.618867 21.480313,26.016563 26.083134,22.288111 25.68915,18.286251 25.295165,14.289134 20.054328,11.534776 13.981842,12.137157 Z M 11.481174,24.901426 C 8.561907,23.9564 7.3261557,21.065262 8.604435,18.458667 c 1.254779,-2.552738 4.521067,-3.997118 7.410209,-3.242442 2.990787,0.77476 4.516421,3.605322 3.294147,6.353037 -1.239169,2.812611 -4.803095,4.310596 -7.827617,3.332164 z m 1.648801,-5.47527 c -0.940263,-0.394176 -2.155873,0.01133 -2.735695,0.924865 -0.587636,0.915841 -0.311194,2.008706 0.622369,2.434178 0.946964,0.434305 2.204028,0.02246 2.791682,-0.918144 0.576442,-0.949441 0.273102,-2.033282 -0.678356,-2.440899 z" fill="currentColor" fill-opacity="0.8" style="fill:#000000;fill-opacity:0.995402;stroke-width:1.92" />
</svg>

<svg width="32" height="32" xmlns="http://www.w3.org/2000/svg">
  <path d="M18.782 8.693c3.733-1.569 6.992-1.662 8.183.046.634.91.573 2.184-.011 3.662-.27.681.083.788.6.943C29.656 13.998 32 15.581 32 18.37 32 22.987 25.362 28.8 15.388 28.8 7.778 28.8 0 25.1 0 19.016c0-3.182 2.01-6.86 5.47-10.332 4.619-4.633 10.006-6.744 12.032-4.71.895.895.98 2.448.407 4.3-.3.933.873.417.873.42zm-4.8 3.444C7.91 12.74 3.305 16.47 3.7 20.467c.394 4 5.636 6.754 11.707 6.152 6.072-.602 10.675-4.33 10.281-8.333-.394-3.997-5.635-6.751-11.707-6.149Zm-2.5 12.764c-2.92-.945-4.156-3.836-2.878-6.442 1.255-2.553 4.522-3.997 7.41-3.243 2.991.775 4.517 3.606 3.295 6.353-1.24 2.813-4.803 4.31-7.828 3.332zm1.648-5.475c-.94-.394-2.156.011-2.736.925-.587.916-.31 2.009.623 2.434.947.435 2.204.023 2.791-.918.577-.95.273-2.033-.678-2.44z" fill="currentColor" style="fill:#000;stroke-width:1.92"/>
</svg>
